assets/sonr-icons/export.svg

<svg xmlns="http://www.w3.org/2000/svg" width="24" height="24" fill="none" viewBox="0 0 24 24"><path fill="#000" d="M8.71 7.71L11 5.41V15C11 15.552 11.448 16 12 16C12.552 16 13 15.552 13 15V5.41L15.29 7.71C15.472 7.893 15.723 8.006 16 8.006C16.277 8.006 16.529 7.893 16.71 7.71C16.893 7.52901 17.005 7.277 17.005 7C17.005 6.723 16.892 6.471 16.71 6.29L12.71 2.29C12.618 2.202 12.508 2.13 12.387 2.082L12.38 2.08C12.268 2.033 12.137 2.005 12 2.005C11.863 2.005 11.732 2.033 11.614 2.082L11.621 2.08C11.493 2.13 11.383 2.201 11.291 2.29L7.291 6.29C7.109 6.471 6.997 6.723 6.997 7C6.997 7.554 7.446 8.004 8.001 8.004C8.278 8.004 8.529 7.891 8.711 7.71H8.71ZM21 14C20.448 14 20 14.448 20 15V19C20 19.552 19.552 20 19 20H5C4.448 20 4 19.552 4 19V15C4 14.448 3.552 14 3 14C2.448 14 2 14.448 2 15V19C2 20.657 3.343 22 5 22H19C20.657 22 22 20.657 22 19V15C22 14.448 21.552 14 21 14Z"/></svg>

<svg xmlns="http://www.w3.org/2000/svg" width="24" height="24" fill="none"><path fill="currentColor" d="M8.71 7.71 11 5.41V15a1 1 0 0 0 2 0V5.41l2.29 2.3a1 1 0 0 0 1.42 0 1 1 0 0 0 0-1.42l-4-4a1 1 0 0 0-.323-.208l-.007-.002a1 1 0 0 0-.766.002l.007-.002a1 1 0 0 0-.33.21l-4 4a1.004 1.004 0 1 0 1.42 1.42zM21 14a1 1 0 0 0-1 1v4a1 1 0 0 1-1 1H5a1 1 0 0 1-1-1v-4a1 1 0 0 0-2 0v4a3 3 0 0 0 3 3h14a3 3 0 0 0 3-3v-4a1 1 0 0 0-1-1"/></svg>
